!!!SOCIAL_FUNCTION:	woman's dance songs
!!!PDT:	1909
!!!OTL: No_185_Where_Are_You?.krn
!!!REG: Great_Lakes
!!!LANG: Non-Tone
!!!LING_GROUP: Algonquin
**kern	**kern
*staff2	*staff1
*clefF4	*clefF4
*k[f#]	*k[f#]
*M3/4	*M3/4
16GG/	16d\
=1	=1
12GG^/	8.d\L
12r	.
12GG/	.
.	16d\Jk
12GG^/	8.e-\L
12r	.
12GG/	.
.	16e-\Jk
12GG^/	8.e-\L
12r	.
12GG/	.
.	16d\Jk
=2	=2
2.r	8.d\L
.	16d\Jk
.	(8d\L
.	8B\J)
.	4B\
=3	=3
2.r	16B\LK
.	8.B\J
.	8.B\L
.	16B\Jk
.	12B\L
.	12A\
.	12B\J
=4||	=4||
*M2/4	*M2/4
2r	8.G\L
.	16G\Jk
.	8.G\L
.	16B\Jk
=5||	=5||
*M3/4	*M3/4
2.r	8.G\L
.	16G\Jk
.	8.G\L
.	16B\Jk
.	12B\L
.	12A\
.	12B\J
=6||	=6||
*M2/4	*M2/4
2r	16G\LK
.	8.G\J
.	4G\
=7	=7
2r	16E\LK
.	8.E\J
.	4E\
=8	=8
2r	16B\LK
.	8.G\J
.	4G\
=9	=9
2r	16E\LK
.	8.G\J
.	4G\
=10	=10
2r	4..G\
.	16r
==	==
*-	*-
